icons/thermometer.svg

<svg width="24" height="24" viewBox="0 0 24 24" fill="none" xmlns="http://www.w3.org/2000/svg">
<g clip-path="url(#clip0)">
<path fill-rule="evenodd" clip-rule="evenodd" d="M9.71885 1.02513C10.3752 0.368749 11.2655 0 12.1937 0C13.122 0 14.0122 0.368749 14.6686 1.02513C15.325 1.6815 15.6937 2.57174 15.6937 3.5V14.259C16.4557 14.8876 17.0371 15.7123 17.3722 16.6487C17.7697 17.7597 17.7994 18.969 17.4569 20.0982C17.1144 21.2273 16.4178 22.2164 15.4701 22.9193C14.5223 23.6222 13.3737 24.0017 12.1937 24.0017C11.0138 24.0017 9.8651 23.6222 8.91736 22.9193C7.96962 22.2164 7.27305 21.2273 6.93054 20.0982C6.58803 18.969 6.61773 17.7597 7.01526 16.6487C7.35033 15.7123 7.93176 14.8876 8.69373 14.259V3.5C8.69373 2.57174 9.06247 1.6815 9.71885 1.02513ZM12.1937 2C11.7959 2 11.4144 2.15804 11.1331 2.43934C10.8518 2.72064 10.6937 3.10218 10.6937 3.5V5H13.6937V3.5C13.6937 3.10218 13.5357 2.72064 13.2544 2.43934C12.9731 2.15804 12.5916 2 12.1937 2ZM13.6937 7H10.6937V14.76C10.6937 15.094 10.527 15.4059 10.2493 15.5915C9.62494 16.0086 9.15131 16.6155 8.89834 17.3225C8.64536 18.0295 8.62646 18.7991 8.84443 19.5176C9.06239 20.2362 9.50566 20.8656 10.1088 21.3129C10.7119 21.7602 11.4428 22.0017 12.1937 22.0017C12.9446 22.0017 13.6756 21.7602 14.2787 21.3129C14.8818 20.8656 15.3251 20.2362 15.543 19.5176C15.761 18.7991 15.7421 18.0295 15.4891 17.3225C15.2361 16.6155 14.7625 16.0086 14.1382 15.5915C13.8605 15.4059 13.6937 15.094 13.6937 14.76V7Z" fill="black"/>
</g>
<defs>
<clipPath id="clip0">
<rect width="24" height="24" fill="white"/>
</clipPath>
</defs>
</svg>

<svg
  width="24"
  height="24"
  viewBox="0 0 24 24"
  xmlns="http://www.w3.org/2000/svg"
>
  <g clip-path="url(#a)">
    <path
      fill-rule="evenodd"
      clip-rule="evenodd"
      d="M9.719 1.025A3.5 3.5 0 0 1 15.694 3.5v10.759a5.5 5.5 0 1 1-7 0V3.5a3.5 3.5 0 0 1 1.025-2.475zM12.194 2a1.5 1.5 0 0 0-1.5 1.5V5h3V3.5a1.5 1.5 0 0 0-1.5-1.5zm1.5 5h-3v7.76a1 1 0 0 1-.445.832 3.5 3.5 0 1 0 3.89 0 1 1 0 0 1-.445-.832V7z"
    />
  </g>
  <defs>
    <clipPath id="a">
      <rect width="24" height="24" />
    </clipPath>
  </defs>
</svg>
